!!!!SEGMENT: Arc2006-Recordare_Domine.krn
!!!id: Arc2006
!!!AGN: Motet
!!!voices: 5
!!!COM: Jacques Arcadelt
!!!OTL: Recordare Domine
**kern	**kern	**kern	**kern	**kern
*part5	*part4	*part3	*part2	*part1
*staff5	*staff4	*staff3	*staff2	*staff1
*I"Bassus	*I"Tenor II	*I"Tenor I	*I"Altus	*I"Superius
*I'B	*I'T. II	*I'T. I	*I'A	*I'S
*clefF4	*clefGv2	*clefGv2	*clefGv2	*clefGv2
*k[]	*k[]	*k[]	*k[]	*k[]
*C:	*C:	*C:	*C:	*C:
*M2/1 	*M2/1	*M2/1	*M2/1	*M2/1
*met(C|)	*met(C|)	*met(C|)	*met(C|)	*met(C|)
!!section: Prima pars: Recordare Domine
!!!OMD: Prima pars: Recordare Domine
=1	=1	=1	=1	=1
0r	1r	0r	0r	1A
.	[1A	.	.	[1c
=2	=2	=2	=2	=2
0r	1A]	1A	0r	2c]
.	.	.	.	2d
.	1A	1c	.	1e
=3	=3	=3	=3	=3
0r	1D	1d	0r	2.f
.	.	.	.	8eL
.	.	.	.	8dJ
.	[1A	2.e	.	2.c
.	.	4d	.	4d
=4	=4	=4	=4	=4
1r	1A]	2.c	0r	1e
.	.	4B	.	.
[1D	[1F	2.A	.	[1d
.	.	4G	.	.
=5	=5	=5	=5	=5
1D]	2F]	4F	1D	1d]
.	.	4E	.	.
.	4E	2.F	.	.
.	4D	.	.	.
1D	1A	.	1F	1r
.	.	4E	.	.
.	.	[2D	.	.
=6	=6	=6	=6	=6
1GG	1B	2D]	1G	0d
.	.	1G	.	.
[1D	1A	.	2.A	.
.	.	4F	.	.
.	.	4E	4G	.
=7	=7	=7	=7	=7
1D]	0r	2F	2A	1d
.	.	2D	1B-i	.
1r	.	2.d	.	1G
.	.	.	4A	.
.	.	8cL	4G	.
.	.	8BJ	.	.
=8	=8	=8	=8	=8
0D	0r	2.A	2F	2.d
.	.	.	1A	.
.	.	4G	.	4e
.	.	2F	.	2f
.	.	[2B-i	[2G	[2d
=9	=9	=9	=9	=9
1D	2r	2B-]	2G]	4d]
.	.	.	.	4c
.	2D	1A	2F	2A
1GG	2D	.	2G	2.B
.	2D	2G	2D	.
.	.	.	.	4c
=10	=10	=10	=10	=10
2.D	2.F	1A	2D	4d
.	.	.	.	4e
.	.	.	2D	2.f
4C	4G	.	.	.
4D	2.A	1D	2.F	.
4E	.	.	.	4g
[2F	.	.	.	[2a
.	4B	.	4G	.
=11	=11	=11	=11	=11
2F]	1c	2E	4A	2a]
.	.	.	4B	.
2E	.	1G	2.c	4g
.	.	.	.	4f
2C	1r	.	.	2e
.	.	.	4B	.
2D	.	2F	[2A	[2f
=12	=12	=12	=12	=12
1BB	1r	1D	4A]	4f]
.	.	.	8G#iL	4e
.	.	.	8F#iJ	.
.	.	.	2G#i	1d
1AA	2r	1E	1A	.
.	2C	.	.	2c#i
=13	=13	=13	=13	=13
1D	2.F	2r	1A	0d
.	.	2D	.	.
.	4G	.	.	.
2D	2A	2F	2r	.
2GG	2B	2G	[2G	.
=14	=14	=14	=14	=14
2.D	2A	0A	2G]	1r
.	1d	.	4F	.
4C	.	.	4E	.
4D	.	.	4F	2.A
4E	.	.	4G	.
[2F	4c	.	[2A	.
.	4B	.	.	4B
=15	=15	=15	=15	=15
2F]	4A	0r	4A]	4c
.	4B	.	4F	4d
2E	2.c	.	1G	2.e
2C	.	.	.	.
.	4B	.	.	4c
2D	[2A	.	2F	[2f
=16	=16	=16	=16	=16
1BB	4A]	1r	1D	4f]
.	8GL	.	.	4e
.	8FJ	.	.	.
.	2G	.	.	1d
1AA	1A	2r	1E	.
.	.	2A	.	2c#i
=17	=17	=17	=17	=17
0D	2F	2A	1D	[0d
.	2A	2A	.	.
.	2A	2.D	2r	.
.	2A	.	2A	.
.	.	4E	.	.
=18	=18	=18	=18	=18
0r	2.D	4F	2A	0d]
.	.	4G	.	.
.	.	2.A	2A	.
.	4E	.	.	.
.	4F	.	2.D	.
.	4G	4G	.	.
.	[2A	4F	.	.
.	.	4E	4E	.
=19	=19	=19	=19	=19
2r	4A]	1D	2F	1r
.	4F	.	.	.
2D	2B-i	.	1G	.
2D	1A	2r	.	2d
2D	.	[2d	2F	2d
=20	=20	=20	=20	=20
2.GG	4G	2d]	2D	2d
.	4A	.	.	.
.	4B	2d	2.D	2G
4AA	4c	.	.	.
4BB	2d	1d	.	1r
4C	.	.	4E	.
4D	[2A	.	4F	.
4E	.	.	4G	.
=21	=21	=21	=21	=21
4F	4A]	2c	2A	1r
4G	4B	.	.	.
1A	4c	2A	2F	.
.	4d	.	.	.
.	1e	1B	1E	2r
2G#i	.	.	.	2e
=22	=22	=22	=22	=22
1A	2c	0A	0r	2e
.	1e	.	.	2e
2r	.	.	.	2A
2A	[2d	.	.	[2f
=23	=23	=23	=23	=23
2A	2d]	2r	1r	2f]
2A	2c	2A	.	2e
1D	2d	2A	2r	1d
.	2A	2A	2D	.
=24	=24	=24	=24	=24
2r	2A	2.D	2.F	2r
2D	2A	.	.	1A
.	.	4E	4G	.
2D	1D	4F	2A	.
.	.	4G	.	.
2D	.	[2A	2F	2A
=25	=25	=25	=25	=25
2GG	0r	2A]	2G	2.B
1G	.	2G	2E	.
.	.	.	.	4c
.	.	2A	1D	1d
2F	.	2A	.	.
=26	=26	=26	=26	=26
1E	1r	2B	2r	2r
.	.	2c	1G	2G
1D	2r	2d	.	2.A
.	2A	2D	2F	.
.	.	.	.	4B
=27	=27	=27	=27	=27
2C	2A	1E	2E	2c
2AA	2A	.	1A	2c
1BB	2.D	1r	.	1d
.	.	.	2G	.
.	4E	.	.	.
=28	=28	=28	=28	=28
1AA	4F	2r	2.A	1c
.	4G	.	.	.
.	2A	2.E	.	.
.	.	.	4B	.
[1E	2r	.	2c	[1e
.	.	4F	.	.
.	2E	4G	2B	.
.	.	4A	.	.
=29	=29	=29	=29	=29
2E]	2G	2B	2r	2e]
2C	2A	2A	2E	2e
2D	1B	2A	2F	2d
2E	.	2G#i	[2E	2B
=30	=30	=30	=30	=30
1AA	1c	1A	4E]	1e
.	.	.	4D	.
.	.	.	4E	.
.	.	.	4F	.
[1E	2B	2r	4G	2r
.	.	.	4A	.
.	[2G	2E	[2B	[2e
=31	=31	=31	=31	=31
2E]	2G]	2G	2B]	2e]
2C	2E	2A	1A	2e
2D	2F	1B	.	2d
2E	2G	.	2G#i	2B
=32	=32	=32	=32	=32
2AA	2E	1c	[0A	2e
2AA	2E	.	.	2e
2D	2D	1r	.	2f
2C	2E	.	.	2e
=33	=33	=33	=33	=33
1D	1F	1r	0A]	1d
1AA	1E	2r	.	2c
.	.	[2A	.	4A
.	.	.	.	4B
=34	=34	=34	=34	=34
2r	0r	2A]	2r	4c
.	.	.	.	4d
2AA	.	2c	2E	4e
.	.	.	.	4c
2D	.	2B	2F	2d
2C	.	2c	2E	[2e
=35	=35	=35	=35	=35
1D	1r	0A	1F	2e]
.	.	.	.	1d
1AA	2r	.	1E	.
.	2E	.	.	2c#i
=36	=36	=36	=36	=36
2r	1F	1A	2.D	1d
1D	.	.	.	.
.	.	.	4E	.
.	2D	2B	2F	1r
2C	2E	2c	2G	.
=37	=37	=37	=37	=37
2BB-X	2F	2.d	1D	0r
2GG	1G	.	.	.
.	.	4c	.	.
2D	.	2B	2r	.
2D	2F	2A	2D	.
=38	=38	=38	=38	=38
1GG	1B-i	1G	2.D	1d
.	.	.	4E	.
1r	1A	2r	2F	2c
.	.	[2d	2D	[2f
=39	=39	=39	=39	=39
1r	2r	2d]	1A	2f]
.	1A	2c	.	2e
1D	.	1d	2F#X	2d
.	2B	.	2F#i	2f
=40	=40	=40	=40	=40
2C	2.c	0r	2G	2e
1F	.	.	2A	2c
.	4B	.	.	.
.	2A	.	2A	2d
2E	2G	.	2B	2e
=41	=41	=41	=41	=41
2C	2G	2r	2c	1r
2D	4F	2A	2F	.
.	4E	.	.	.
2BB	2D	2B	2G	2r
2AA	2C	[2c	[2A	[2E
=42	=42	=42	=42	=42
2C	2E	4c]	2A]	2E]
.	.	4B	.	.
2D	2D	1A	2A	2F
1GG	1D	.	2.B	1G
.	.	2G	.	.
.	.	.	4c	.
=43	=43	=43	=43	=43
1D	0r	1F	2d	2A
.	.	.	2A	1d
[1AA	.	[1E	2A	.
.	.	.	2A	2c
=44	=44	=44	=44	=44
0AA_	0r	1E]	2.c	2.A
.	.	.	4d	4B
.	.	2r	2e	2c
.	.	2A	[2d	2d
=45	=45	=45	=45	=45
1AA]	0r	2A	2d]	1e
.	.	2A	2c	.
2r	.	[1D	2.d	[1f
[2D	.	.	.	.
.	.	.	8cL	.
.	.	.	8BJ	.
=46	=46	=46	=46	=46
2D]	2r	2D]	4A	2f]
.	.	.	4B	.
2C	1A	2E	1c	4e
.	.	.	.	4d
2AA	.	2F	.	2c
2BB	2G	2D	[2B	2d
=47	=47	=47	=47	=47
2C	2E	2.A	2B]	2e
2D	2F	.	2A	2A
.	.	4B	.	.
1E	1G	2c	2A	1e
.	.	[2B	2G#i	.
=48	=48	=48	=48	=48
1AA	1E	2B]	1A	2r
.	.	1A	.	2e
2r	[1c	.	1E	2e
[2AA	.	4G	.	2e
.	.	4F	.	.
=49	=49	=49	=49	=49
2AA]	2c]	2E	0r	2c
2BB	2B	2D	.	2d
2C	2A	2E	.	2c
2D	2A	2F	.	2f
=50	=50	=50	=50	=50
2E	2G	2G	1r	2e
2F	2F	2A	.	1d
1G	1E	2B	2r	.
.	.	2G	2E	2c#i
=51	=51	=51	=51	=51
0GG	1D	2.B	2G	0d
.	.	.	2G	.
.	.	4c	.	.
.	2r	[1d	[1D	.
.	2D	.	.	.
=52	=52	=52	=52	=52
2r	2F	1d]	2D]	2r
2GG	2G	.	2D	1d
1D	1A	2r	2.F	.
.	.	2D	.	[2f
.	.	.	4G	.
=53	=53	=53	=53	=53
1D	2D	2.F	1A	2f]
.	1d	.	.	2f
.	.	4G	.	.
1AA	.	1A	2r	1e
.	2c#i	.	2A	.
=54	=54	=54	=54	=54
0r	2d	2D	2A	2r
.	2.e	2r	2A	2c
.	.	1r	2B	2.g
.	4d	.	.	.
.	[2d	.	2G	.
.	.	.	.	4f
=55	=55	=55	=55	=55
0r	2d]	2r	1A	2e
.	2c	2A	.	1f
.	2d	2A	2D	.
.	2c	2A	2r	[2e
=56	=56	=56	=56	=56
0r	2.d	2B	1r	2e]
.	.	2G	.	1d
.	4e	.	.	.
.	2f	1A	2r	.
.	2e	.	2A	2c#i
=57	=57	=57	=57	=57
2r	1.d	1D	2A	2d
2D	.	.	2A	2d
2D	.	1r	2B	2.f
2D	2d	.	2A	.
.	.	.	.	4f
=58	=58	=58	=58	=58
2E	2B	2r	2G	2e
2C	2c	2A	2E	2e
1D	1A	2A	1F	1d
.	.	2A	.	.
=59	=59	=59	=59	=59
1GG	2G	2B	1G	2d
.	2D	2G	.	2d
2r	2.D	1A	1d	2d
2D	.	.	.	2d
.	4E	.	.	.
=60	=60	=60	=60	=60
2D	4F	1D	2d	2d
.	4G	.	.	.
2D	2A	.	2d	2f
2E	2G	2r	2B	1e
2C	2E	2A	2c	.
=61	=61	=61	=61	=61
1D	4F	2A	1A	1d
.	2G	.	.	.
.	.	2A	.	.
.	4F	.	.	.
1GG	1G	2B	2G	1d
.	.	2G	2D	.
=62	=62	=62	=62	=62
1D	1r	2.A	1F	2r
.	.	.	.	4A
.	.	4F	.	4B
2C	2r	2G	1E	4c
.	.	.	.	4d
2AA	2c	2A	.	[2e
=63	=63	=63	=63	=63
2C	2c	2G	1r	2e]
2D	2B	2F	.	1d
1AA	2.A	1E	2r	.
.	.	.	2A	2c#i
.	4G	.	.	.
=64	=64	=64	=64	=64
1D	2F	0D	2A	[0dl
.	2.A	.	2A	.
2r	.	.	2B	.
.	4G	.	.	.
2GG	[2G	.	2G	.
=65	=65	=65	=65	=65
1.D	2G]	2r	1A	0d_
.	4F	2A	.	.
.	4E	.	.	.
.	2F	2A	1D	.
2D	4G	2A	.	.
.	4F	.	.	.
=66	=66	=66	=66	=66
2GG	1G	2B	2r	0d_
2GG	.	2G	1G	.
[1D	2r	1A	.	.
.	2A	.	4F	.
.	.	.	4E	.
=67	=67	=67	=67	=67
2D]	2A	[0Dl	1F	0d_
2D	2A	.	.	.
2GG	2B	.	1G	.
2GG	2G	.	.	.
=68	=68	=68	=68	=68
[0Dl	1A	0D_	2.F#X	0d_
.	.	.	4G	.
.	[1F#Xl	.	[1Al	.
=69	=69	=69	=69	=69
00D]	00F#]	00D]	00A]	00d]
==	==	==	==	==
*-	*-	*-	*-	*-
!!!system-decoration: [*]
!!!RDF**kern: i = editorial accidental
!!!RDF**kern: l = terminal long
!!!ENC: Benjamin Ory
!!!END: 2024/12/8
!!!EED: Benjamin Ory
!!!EEV: 2024/12/08
!!!YEC: Copyright 2024 Benjamin Ory, All Rights Reserved
!!!ONB: Translated from MusicXML on 2024/12/08